X: 13738
T: Forest Wedding
R: jig
M: 6/8
K: Dminor
|:D3 D2E|FED DEF|G2D G2A|BAG GAB|A3 A2^c|
e3 ^c2e|1 dfe dcB|AGF ED^C:|2 d2f ed^c|d2A d2e||
|:f3 f2g|fed d2A|B3 B2c|BAG G3|
[1 e3 e2f|g3 g2e|fed edc|dcB Ade:|
[2 e3 e2d|^c3 ^cde|d2f ed^c|d2A F2E||

